!!!COM: Bach, Johann Sebastian
!!!OTL: 28. Nun komm, der Heiden Heiland
!!!ONM: No. 28
!!!OCL: Erk
!!!SCA: BWV 36.8
!!!YOE: Riemenschneider, Albert
!!!OPR: 371 Harmonized Chorales and 69 Chorale Melodies with Figured Bass
!!!OPT: Bach Chorale Harmonizations
!!!ONB: From the end of Canata No. 36
**harm	**root	**kern	**kern	**kern	**kern
!	!	!bass	!tenor	!alto	!sprno
*Iorgan	*Iorgan	*Iorgan	*Iorgan	*Iorgan	*Iorgan
*k[f#]	*k[f#]	*k[f#]	*k[f#]	*k[f#]	*k[f#]
*e:	*e:	*e:	*e:	*e:	*e:
*met(c)	*met(c)	*met(c)	*met(c)	*met(c)	*met(c)
*M4/4	*M4/4	*M4/4	*M4/4	*M4/4	*M4/4
*MM60	*MM60	*MM60	*MM60	*MM60	*MM60
=1-	=1-	=1-	=1-	=1-	=1-
i	4BB	8e	4g	4b	4ee
.	.	8d	.	.	.
ivb	4EE	4c	8f#	4a	4ee
.	.	.	8e	.	.
v	4FF#	8B	4f#	4b	4dd
.	.	8A	.	.	.
ib	8BB	8G	4e	8b	4gg
vib	8GG	8E	.	16cc	.
.	.	.	.	16dd	.
=2	=2	=2	=2	=2	=2
iv	8EE	8A	4.e	8cc	8ff#
ib	8BB	8G	.	8b	8ee
-VIIc	8AA	8A	.	4a	4ff#
V7	8FF#	8B	8d#	.	.
i;	2BB;	2E;	2B;	2g;	2ee;
=3	=3	=3	=3	=3	=3
i	4BB	4E	8g	4b	8ee
.	.	.	8f#	.	8ff#
i	4BB	4e	4e	8b	4gg
.	.	.	.	8cc#	.
-VII	4AA	8d	4f#	4dd	4aa
.	.	8c	.	.	.
ic	4BB	4B	4g	8dd	4gg
.	.	.	.	8ee	.
=4	=4	=4	=4	=4	=4
iio	4CC#	4A	4c	4ff#	4aa
V/VI	4DD	4G	8d	8gg	4bb
.	.	.	16e	8b	.
.	.	.	16f	.	.
VI;	2GG;	2c;	2e;	2cc;	2gg;
!!linebreak: 2
=5	=5	=5	=5	=5	=5
Vb/VI	4DD	8B	4d	4dd	4gg
.	.	8A	.	.	.
Vb/III	4AA	8G	4a	4dd	4aa
.	.	8F#	.	.	.
III	8DD	4G	8g	8dd	8bb
viio	8AA#	.	8f#	8dd#	8aa
VI	4GG	8c	4e	4ee	4gg
.	.	8B	.	.	.
=6	=6	=6	=6	=6	=6
iiob	4CC#	4A	4cc	8ff#	8aa
.	.	.	.	8ee	8gg
V	4FF#	4B	8f#	4dd#	4ff#
.	.	.	8b	.	.
i;	2BB;	2E;	2g;	2b;	2ee;
=7	=7	=7	=7	=7	=7
i	4BB	8e	4g	4b	4ee
.	.	8d	.	.	.
viib/V	4EE#	4c#	8f#	4a#	4ee
.	.	.	8e	.	.
v	4FF#	8B	4f#	8b	4dd
.	.	8A	.	8cc#	.
IIIb	4DD	8B	4b	8dd	4gg
.	.	8c#y	.	8ee	.
=8	=8	=8	=8	=8	=8
V7b	8FF#	8d#	8a	8b	8ff#
i	8BB	8e	8g	[8ee	8ee
V	4FF#	4B	16f#	8ee]	4ff#
.	.	.	16g	.	.
.	.	.	8a	8dd#	.
I;	2BB;	2E;	2g#;	2b;	2ee;
==	==	==	==	==	==
*-	*-	*-	*-	*-	*-
!!!CDT: 1685/3//-1750/7/28
!!!OCY: Deutschland
!!!AGN: chorale
!!!AST: Baroque
!!!AIN: vox
!!!YOY: 1941
!!!PPP: New York; London
!!!PPR: G. Schirmer
!!!ENC: David Huron
!!!EED: David Huron
!!!YEN: United States of America
!!!YER: 1992
!!!YEC: Copyright 1992 David Huron
!!!YEM: Rights to all derivative electronic formats reserved.
!!!YER: March 20, 1996
!!!AMT: simple quadruple
!!!EEV: 1.1
!!chor2scor: -l 2 -s 0.6 -o %b.pmx
